X: 17679
T: Holly Bush, The
R: jig
M: 6/8
K: Gmajor
|:BAG G,Bd|DGG ABc|BAG edc|BdB cBA|
BAG G,Bd|DGG ABc|BAG edc|def fgd:|
|:gdd gdd|gdd dcB|Acf Acc|Acf cBA|
G,BB cBc|BAG ABc|BAG edc|1 def fgd:|2 def g3||

